dist/svgs/pre.svg

<svg xmlns="http://www.w3.org/2000/svg" viewBox="0 0 512 512"><path d="M160 164l-91 90 91 90-35 34L1 254l124-125zm353 90L388 378l-35-34 91-90-91-90 35-35zM278 79l47 13-90 337-47-13z"/></svg>

<?xml version="1.0" encoding="UTF-8" standalone="no"?><svg   xmlns:svg="http://www.w3.org/2000/svg"   xmlns="http://www.w3.org/2000/svg"   version="1.1"   width="512"   height="512"   viewBox="0 0 512 512">  <path     d="M160 164L69 254L160 344L125 378L1 254L125 129zM513 254L388 378L353 344L444 254L353 164L388 129zM278 79L325 92L235 429L188 416z"     id="pre" /></svg>
